docs/images/tabs/3.svg

<svg width="186" height="169" viewBox="0 0 186 169" fill="none" xmlns="http://www.w3.org/2000/svg">
<g clip-path="url(#clip0_509_9103)">
<path d="M52.025 136.242C34.9192 136.402 20.1993 134.358 8.61351 131.934L8.49219 149.505C21.5945 153.332 35.1618 155.316 48.8303 155.396C62.3572 155.416 75.7425 153.693 88.7437 150.106L88.8246 132.535C78.5328 134.519 66.118 136.101 52.025 136.242Z" fill="white"/>
<path d="M87.1665 32.1368C67.0683 33.94 50.3062 33.6395 50.3062 33.6395C50.3062 33.6395 24.0612 33.1586 12.5967 31.4356C11.6666 31.2953 10.5545 31.095 9.34133 30.7744L9.24023 43.4569C21.372 44.9997 35.182 46.0816 50.4478 46.0816C64.7026 46.0816 77.724 45.1199 89.2491 43.6974L89.3098 31.8764C88.4404 32.0367 87.6922 32.1168 87.1665 32.1569V32.1368Z" fill="white"/>
<path d="M4.30629 10.7391C4.26585 10.9996 4.30629 11.3402 4.44783 11.7008L4.14453 11.821C13.3242 16.0485 50.225 15.6278 50.225 15.6278C50.225 15.6278 86.1956 15.207 94.8496 11.4203C94.8496 11.1999 94.8294 10.9996 94.789 10.8193C94.4857 9.7173 92.949 8.17456 87.2268 7.15275C71.961 4.40788 48.4659 4.28767 48.2232 4.28767C47.9806 4.28767 22.8274 4.22756 9.76558 7.69371C5.94407 8.71553 4.42761 9.93769 4.28607 10.7592L4.30629 10.7391Z" fill="white"/>
<path d="M119.72 132.936C119.538 132.976 119.073 133.156 118.204 133.857C117.921 134.078 117.557 134.418 117.516 134.759C117.476 135.08 117.718 135.44 117.941 135.681C118.527 136.382 119.477 137.083 120.772 137.764C120.772 137.764 120.933 137.764 121.034 137.764H121.055C132.216 137.264 142.77 138.606 152.415 141.711C155.286 142.633 157.874 143.895 160.119 145.418C163.172 145.458 165.497 145.458 167.095 145.418C171.098 145.358 175.021 144.717 178.721 143.475C179.247 143.294 179.833 142.994 180.622 142.513C180.945 142.312 180.965 142.132 180.965 142.052C181.006 141.511 180.359 140.529 179.469 139.748C177.629 138.165 175.546 136.803 173.282 135.701C169.865 134.038 166.346 132.715 162.848 131.794C157.612 130.411 152.173 129.51 146.693 129.149C143.903 128.949 141.011 129.009 138.221 129.069C135.633 129.129 133.085 129.349 130.659 129.75C128.131 130.031 125.584 130.592 123.016 131.393C121.904 131.754 120.893 132.195 120.023 132.756L119.72 132.876V132.936Z" fill="white"/>
<path d="M100.855 147.281C101.017 147.722 102.352 148.544 103.848 149.024C106.537 149.926 109.327 150.627 112.118 151.128C119.235 152.39 126.393 153.092 133.409 153.232C136.321 153.292 139.131 153.292 141.78 153.232C142.872 153.212 144.853 153.092 147.724 152.891C151.061 152.651 153.73 152.15 156.156 151.288C156.783 151.068 157.43 150.707 158.077 150.227C158.138 150.187 158.239 150.106 158.239 150.046C158.239 149.826 157.895 149.345 157.41 149.024C154.923 147.341 152.496 146.54 149.362 145.578C145.804 144.496 142.083 143.695 138.322 143.194C135.35 142.793 133.308 142.573 132.297 142.533C131.023 142.473 129.769 142.413 128.496 142.333C127.889 142.292 127.161 142.272 126.332 142.272C125.018 142.272 123.441 142.333 121.621 142.433C117.597 142.533 114.301 142.793 111.794 143.194C108.256 143.755 105.587 144.496 103.181 145.558C102.513 145.839 101.968 146.159 101.523 146.48H101.502C101.159 146.74 100.876 147.121 100.855 147.261V147.281ZM131.347 143.354C131.347 143.354 131.347 143.394 131.367 143.414C131.367 143.414 131.367 143.374 131.347 143.354ZM131.407 143.455C131.407 143.455 131.427 143.495 131.448 143.495C131.448 143.495 131.427 143.475 131.407 143.455ZM132.358 143.354C132.358 143.354 132.358 143.314 132.358 143.294C132.358 143.294 132.358 143.334 132.358 143.354ZM132.378 143.414C132.378 143.414 132.378 143.455 132.398 143.475C132.398 143.475 132.398 143.435 132.378 143.414ZM132.459 143.575C132.459 143.575 132.418 143.555 132.418 143.535C132.418 143.535 132.438 143.575 132.459 143.575ZM132.398 143.194V143.174C132.398 143.194 132.378 143.214 132.358 143.254C132.358 143.254 132.358 143.234 132.358 143.214L132.398 143.194ZM131.347 143.234C131.347 143.234 131.347 143.274 131.347 143.294C131.347 143.294 131.347 143.254 131.347 143.234Z" fill="white"/>
<path d="M115.312 136.983L115.494 137.003V136.983H115.312Z" fill="white"/>
<path d="M181.128 151.068C181.249 149.606 181.33 148.183 181.391 146.781C180.38 147.242 179.247 147.662 177.973 148.023C177.529 148.143 177.144 148.223 176.76 148.303C176.457 148.364 176.174 148.424 175.871 148.504C175.345 148.664 174.738 148.784 174.071 148.844C171.362 149.085 169.784 149.205 169.259 149.225C167.136 149.265 164.972 149.285 162.748 149.285C163.011 150.127 163.132 151.028 163.112 151.95C163.112 152.852 163.112 154.254 163.112 156.157C165.902 156.197 168.733 156.037 171.564 155.717C173.808 155.476 175.972 154.975 178.196 154.194C179.166 153.853 179.975 153.413 180.602 152.852C180.784 152.691 181.027 152.25 181.107 151.068H181.128Z" fill="white"/>
<path d="M158.704 159.042C158.704 158.541 158.704 158.06 158.725 157.6C158.765 156.678 158.785 155.576 158.806 154.294C156.622 155.275 154.297 155.977 151.87 156.377C148.777 156.878 145.137 157.179 141.053 157.259C134.401 157.399 127.849 157.159 121.602 156.558C118.67 156.277 115.799 155.917 113.089 155.456C110.764 155.075 108.439 154.634 106.194 154.133C103.849 153.613 101.867 152.971 100.088 152.09V152.23C100.189 154.374 100.229 155.476 100.229 155.536V155.997C100.29 156.598 100.331 157.6 100.614 157.86C102.191 159.343 104.597 160.104 106.518 160.605C109.065 161.266 111.755 161.807 114.525 162.208C118.205 162.729 120.631 163.069 121.784 163.19C128.375 163.931 135.048 164.292 141.619 164.251C144.874 164.251 147.725 163.991 150.738 163.71C153.71 163.45 156.602 162.669 158.543 161.647C158.684 160.946 158.684 159.984 158.684 159.042H158.704Z" fill="white"/>
<path d="M131.447 143.495C131.447 143.495 131.426 143.475 131.406 143.455" stroke="white" stroke-linecap="round" stroke-linejoin="round"/>
<path d="M131.346 143.354C131.346 143.354 131.346 143.395 131.366 143.415" stroke="white" stroke-linecap="round" stroke-linejoin="round"/>
<path d="M131.346 143.234C131.346 143.234 131.346 143.274 131.346 143.294" stroke="white" stroke-linecap="round" stroke-linejoin="round"/>
<path d="M184.544 138.706C182.461 135.661 179.085 133.517 177.245 132.495C174.111 130.772 170.633 129.29 166.933 128.148C158.178 125.423 148.998 124.08 139.636 124.261C135.026 124.341 130.558 124.842 126.352 125.763C120.893 126.965 117.011 128.668 114.503 130.953C113.209 132.135 112.38 133.637 112.016 135.42C111.733 136.863 111.511 138.025 111.369 138.887C110.722 139.388 108.801 139.969 106.961 140.51C103.261 141.611 98.6714 142.994 96.6697 145.639C95.6789 146.961 95.7396 149.926 95.9215 157.079C95.9215 157.5 95.962 158.642 96.609 159.824C96.7708 160.144 96.973 160.425 97.2156 160.705C97.7009 161.306 98.4288 161.887 99.4398 162.529C102.655 164.552 106.537 165.454 109.934 166.075C118.729 167.678 127.747 168.639 136.725 168.92C137.736 168.96 138.767 168.98 139.818 168.98C142.548 168.98 145.419 168.86 148.371 168.639C150.535 168.479 152.88 168.139 155.327 167.618C157.955 167.077 161.332 165.895 162.586 163.33C162.95 162.589 163.071 161.687 163.091 160.826C166.549 160.846 170.047 160.625 173.484 160.124C176.962 159.623 180.075 159.002 182.967 156.738C184.423 155.576 185.434 154.354 185.656 152.19C185.757 151.148 185.838 150.147 185.879 149.185C186 147.241 186.04 145.298 186.04 143.395C186.04 141.692 185.535 140.109 184.584 138.726L184.544 138.706ZM182.987 145.318C182.987 145.318 182.987 145.258 182.947 145.218C182.947 145.238 182.947 145.278 182.947 145.298L182.987 145.318ZM182.906 145.198C182.906 145.198 182.866 145.198 182.866 145.178C182.866 145.178 182.906 145.178 182.906 145.198ZM160.361 152.751V152.711C160.361 152.711 160.361 152.731 160.361 152.751ZM160.321 152.691C160.321 152.691 160.321 152.691 160.301 152.691C160.301 152.691 160.301 152.691 160.321 152.691ZM101.522 146.52C101.967 146.2 102.513 145.879 103.18 145.599C105.607 144.537 108.256 143.815 111.794 143.234C114.301 142.834 117.597 142.573 121.621 142.473C123.461 142.353 125.038 142.313 126.332 142.313C127.161 142.313 127.889 142.333 128.495 142.373C129.749 142.453 131.023 142.533 132.297 142.573C133.328 142.613 135.35 142.834 138.322 143.234C142.083 143.735 145.803 144.537 149.362 145.619C152.496 146.58 154.902 147.382 157.409 149.065C157.895 149.385 158.218 149.866 158.238 150.087C158.238 150.147 158.137 150.227 158.077 150.267C157.409 150.748 156.762 151.108 156.156 151.329C153.729 152.17 151.04 152.691 147.724 152.932C144.873 153.132 142.871 153.252 141.78 153.272C139.131 153.332 136.32 153.332 133.409 153.272C126.392 153.132 119.235 152.431 112.117 151.168C109.327 150.668 106.537 149.966 103.848 149.065C102.372 148.564 101.017 147.762 100.855 147.322C100.855 147.181 101.158 146.801 101.502 146.56H101.522V146.52ZM99.5813 150.447C99.5813 150.447 99.6015 150.447 99.6217 150.427C99.6217 150.427 99.6015 150.427 99.5813 150.447ZM117.86 138.847C117.86 138.847 117.86 138.847 117.86 138.867C117.86 138.867 117.86 138.867 117.86 138.847ZM117.84 138.887C117.84 138.887 117.819 138.887 117.799 138.887C117.799 138.887 117.819 138.887 117.84 138.867V138.887ZM161.898 148.283C161.898 148.283 161.898 148.303 161.898 148.323C161.898 148.323 161.898 148.303 161.898 148.283ZM161.918 148.243C161.918 148.243 161.939 148.243 161.959 148.243C161.939 148.243 161.918 148.243 161.898 148.263L161.918 148.243ZM150.757 163.711C147.744 163.971 144.873 164.232 141.638 164.252C135.067 164.292 128.394 163.931 121.803 163.19C120.65 163.07 118.224 162.729 114.544 162.208C111.774 161.807 109.064 161.286 106.537 160.605C104.616 160.104 102.21 159.343 100.633 157.86C100.35 157.6 100.309 156.598 100.289 155.997V155.536C100.289 155.536 100.208 154.354 100.127 152.23V152.09C101.907 152.972 103.888 153.613 106.234 154.134C108.478 154.635 110.803 155.075 113.128 155.456C115.838 155.897 118.689 156.278 121.641 156.558C127.889 157.159 134.44 157.399 141.092 157.259C145.176 157.179 148.816 156.879 151.91 156.378C154.336 155.997 156.661 155.296 158.845 154.294C158.845 155.576 158.804 156.678 158.764 157.6C158.744 158.061 158.744 158.542 158.744 159.042C158.744 159.984 158.744 160.946 158.602 161.647C156.661 162.689 153.75 163.45 150.798 163.711H150.757ZM130.639 129.79C133.065 129.39 135.592 129.149 138.201 129.109C140.991 129.049 143.862 128.989 146.673 129.189C152.152 129.57 157.591 130.452 162.828 131.834C166.346 132.756 169.844 134.078 173.261 135.741C175.526 136.843 177.609 138.205 179.449 139.788C180.338 140.57 180.985 141.551 180.945 142.092C180.945 142.172 180.945 142.333 180.601 142.553C179.833 143.034 179.246 143.335 178.701 143.515C175 144.737 171.078 145.398 167.074 145.458C165.497 145.478 163.172 145.478 160.099 145.458C157.854 143.936 155.266 142.673 152.395 141.752C142.75 138.626 132.195 137.284 121.034 137.805H121.014C121.014 137.805 120.771 137.785 120.751 137.805C119.457 137.124 118.507 136.422 117.92 135.721C117.718 135.481 117.476 135.1 117.496 134.799C117.536 134.459 117.88 134.118 118.183 133.898C119.073 133.217 119.518 133.036 119.7 132.976L120.003 132.856C120.873 132.315 121.884 131.854 122.996 131.494C125.563 130.692 128.111 130.131 130.639 129.851V129.79ZM115.818 139.087C115.818 139.087 115.777 139.087 115.777 139.067C115.777 139.067 115.797 139.067 115.818 139.087ZM115.737 139.007C115.737 139.007 115.737 138.987 115.737 138.967C115.737 138.967 115.737 138.967 115.737 138.947C115.737 138.967 115.737 138.987 115.737 139.007ZM99.6622 150.407C99.6824 150.407 99.7026 150.407 99.7228 150.407C99.7026 150.407 99.6622 150.407 99.642 150.407H99.6622ZM178.215 154.174C175.991 154.955 173.828 155.456 171.583 155.696C168.753 156.017 165.922 156.177 163.131 156.137C163.111 154.234 163.111 152.831 163.131 151.93C163.131 151.008 163.01 150.127 162.768 149.265C164.971 149.265 167.155 149.245 169.278 149.205C169.804 149.205 171.361 149.065 174.09 148.824C174.758 148.764 175.364 148.664 175.89 148.484C176.193 148.404 176.476 148.343 176.78 148.283C177.144 148.203 177.548 148.123 177.993 148.003C179.246 147.642 180.399 147.221 181.41 146.761C181.349 148.163 181.268 149.606 181.147 151.048C181.066 152.23 180.824 152.651 180.642 152.831C180.015 153.372 179.206 153.833 178.236 154.174H178.215Z" fill="#323E48"/>
<path d="M117.859 138.868C117.859 138.868 117.859 138.868 117.859 138.847" stroke="#79AA99" stroke-linecap="round" stroke-linejoin="round"/>
<path d="M117.839 138.887C117.839 138.887 117.819 138.887 117.799 138.907C117.799 138.907 117.819 138.907 117.839 138.907V138.887Z" fill="#79AA99"/>
<path d="M115.716 138.947C115.716 138.947 115.716 138.947 115.716 138.967C115.716 138.967 115.716 138.987 115.716 139.007C115.716 139.007 115.696 138.967 115.716 138.947Z" fill="#79AA99"/>
<path d="M115.818 139.087C115.818 139.087 115.777 139.087 115.777 139.067" stroke="#79AA99" stroke-linecap="round" stroke-linejoin="round"/>
<path d="M132.398 143.194C132.398 143.194 132.398 143.214 132.398 143.234C132.398 143.214 132.398 143.194 132.439 143.154C132.439 143.154 132.439 143.154 132.439 143.174L132.398 143.194Z" fill="#79AA99"/>
<path d="M132.418 143.515C132.418 143.515 132.438 143.555 132.458 143.555" stroke="#79AA99" stroke-linecap="round" stroke-linejoin="round"/>
<path d="M132.397 143.475C132.397 143.475 132.397 143.435 132.377 143.415" stroke="#79AA99" stroke-linecap="round" stroke-linejoin="round"/>
<path d="M132.357 143.294C132.357 143.294 132.357 143.335 132.357 143.355" stroke="#79AA99" stroke-linecap="round" stroke-linejoin="round"/>
<path d="M182.986 145.318C182.986 145.318 182.986 145.258 182.986 145.238C182.986 145.258 183.027 145.298 183.027 145.338L182.986 145.318Z" fill="#79AA99"/>
<path d="M182.906 145.198C182.906 145.198 182.865 145.198 182.865 145.178" stroke="#79AA99" stroke-linecap="round" stroke-linejoin="round"/>
<path d="M161.898 148.283C161.898 148.283 161.898 148.303 161.898 148.322" stroke="#79AA99" stroke-linecap="round" stroke-linejoin="round"/>
<path d="M161.918 148.243C161.918 148.243 161.958 148.223 161.979 148.223H161.938L161.918 148.243Z" fill="#79AA99"/>
<path d="M99.582 150.447C99.582 150.447 99.6023 150.447 99.6225 150.427" stroke="#79AA99" stroke-linecap="round" stroke-linejoin="round"/>
<path d="M160.322 152.691C160.322 152.691 160.322 152.691 160.301 152.691" stroke="#79AA99" stroke-linecap="round" stroke-linejoin="round"/>
<path d="M96.9323 28.1497C97.5996 27.4685 98.0444 26.8274 98.2668 26.4668C98.3679 21.9788 98.469 17.4708 98.5701 12.9828L98.9745 13.063C99.2374 11.9009 99.2374 10.7789 98.9745 9.71703C97.6198 4.66806 90.6642 3.40582 88.0357 2.945C72.3655 0.140025 49.2545 -0.000224377 48.284 -0.000224377C47.2326 -0.0603311 22.3018 -0.0603311 8.69404 3.54607C3.43695 4.9686 0.626424 7.0523 0.080495 9.97749C-0.121701 11.0394 0.0198362 12.1413 0.464667 13.2633L0.666863 13.1832C0.747741 17.7513 0.8084 22.3194 0.889279 26.8875C1.29367 27.168 1.98114 27.6288 2.85058 28.1297C3.5987 28.5505 4.34683 28.9111 5.07473 29.2517L4.18507 152.651L5.72176 153.112C19.6935 157.359 34.2112 159.563 48.8299 159.643C49.113 159.643 49.3961 159.643 49.6994 159.643C63.8531 159.643 77.9057 157.66 91.5135 153.733L93.0502 153.292L93.6365 30.4538C94.789 29.8928 95.9416 29.1515 96.9525 28.1097L96.9323 28.1497ZM48.8501 155.416C35.1817 155.336 21.6144 153.352 8.51206 149.525L8.63338 131.954C20.2192 134.378 34.9391 136.422 52.0448 136.262C66.1581 136.141 78.5729 134.559 88.8445 132.555L88.7636 150.126C75.7624 153.713 62.377 155.456 48.8501 155.416ZM89.2691 43.6773C77.7439 45.0798 64.7427 46.0415 50.4677 46.0615C35.2019 46.0615 21.3919 44.9997 9.26019 43.4369L9.36129 30.7544C10.5745 31.0749 11.6865 31.2753 12.6166 31.4155C24.0811 33.1586 50.306 33.6195 50.3262 33.6195C50.3262 33.6195 67.068 33.92 87.1865 32.1168C87.7122 32.0767 88.4805 31.9966 89.3298 31.8363L89.2691 43.6573V43.6773ZM48.2638 4.26735C48.5064 4.26735 71.9813 4.38756 87.2674 7.13244C92.9693 8.15425 94.5262 9.69699 94.8295 10.7989C94.8699 10.9793 94.9104 11.1796 94.8901 11.4C86.2159 15.1867 50.2655 15.6075 50.2655 15.6075C50.2655 15.6075 13.3648 16.0282 4.18507 11.8007L4.48837 11.6805C4.34683 11.2998 4.28617 10.9793 4.34683 10.7188C4.48837 9.89735 6.02505 8.67518 9.82634 7.65336C22.8882 4.18721 48.0211 4.22728 48.284 4.24732L48.2638 4.26735Z" fill="#323E48"/>
</g>
<defs>
<clipPath id="clip0_509_9103">
<rect width="186" height="169" fill="white"/>
</clipPath>
</defs>
</svg>

<svg xmlns="http://www.w3.org/2000/svg" width="186" height="169" fill="none"><g clip-path="url(#a)"><path fill="#fff" d="M52.025 136.242a202.5 202.5 0 0 1-43.411-4.308l-.122 17.571a147 147 0 0 0 40.338 5.891c13.527.02 26.913-1.703 39.914-5.29l.08-17.571a205 205 0 0 1-36.799 3.707M87.167 32.137c-20.099 1.803-36.86 1.502-36.86 1.502s-26.246-.48-37.71-2.203c-.93-.14-2.042-.341-3.256-.662l-.1 12.683a326 326 0 0 0 41.207 2.625 317 317 0 0 0 38.801-2.385l.06-11.82c-.869.16-1.617.24-2.142.28zM4.306 10.74c-.04.26 0 .6.142.96l-.303.121c9.18 4.228 46.08 3.807 46.08 3.807s35.97-.421 44.625-4.208q0-.33-.061-.6c-.303-1.103-1.84-2.645-7.562-3.667C71.96 4.408 48.466 4.288 48.223 4.288s-25.396-.06-38.457 3.406c-3.822 1.022-5.338 2.244-5.48 3.065zM119.72 132.936c-.182.04-.647.22-1.516.921-.283.221-.647.561-.688.902-.04.321.202.681.425.922.586.701 1.536 1.402 2.831 2.083h.283c11.161-.5 21.715.842 31.36 3.947 2.871.922 5.459 2.184 7.704 3.707q4.58.06 6.976 0c4.003-.06 7.926-.701 11.626-1.943.526-.181 1.112-.481 1.901-.962.323-.201.343-.381.343-.461.041-.541-.606-1.523-1.496-2.304a28.8 28.8 0 0 0-6.187-4.047c-3.417-1.663-6.936-2.986-10.434-3.907a85.4 85.4 0 0 0-16.155-2.645c-2.79-.2-5.682-.14-8.472-.08-2.588.06-5.136.28-7.562.681-2.528.281-5.075.842-7.643 1.643-1.112.361-2.123.802-2.993 1.363l-.303.12zm-18.865 14.345c.162.441 1.497 1.263 2.993 1.743a59 59 0 0 0 8.27 2.104 138 138 0 0 0 21.291 2.104c2.912.06 5.722.06 8.371 0 1.092-.02 3.073-.14 5.944-.341 3.337-.24 6.006-.741 8.432-1.603.627-.22 1.274-.581 1.921-1.061.061-.04.162-.121.162-.181 0-.22-.344-.701-.829-1.022-2.487-1.683-4.914-2.484-8.048-3.446a70 70 0 0 0-11.04-2.384c-2.972-.401-5.014-.621-6.025-.661-1.274-.06-2.528-.12-3.801-.2a33 33 0 0 0-2.164-.061c-1.314 0-2.891.061-4.711.161-4.024.1-7.32.36-9.827.761-3.538.561-6.207 1.302-8.613 2.364a8.4 8.4 0 0 0-1.658.922h-.021c-.343.26-.626.641-.647.781zm30.492-3.927s0 .04.02.06c0 0 0-.04-.02-.06m.06.101s.02.04.041.04zm.951-.101v-.06zm.02.06s0 .041.02.061c0 0 0-.04-.02-.061m.081.161s-.041-.02-.041-.04c0 0 .02.04.041.04m-.061-.381v-.02c0 .02-.02.04-.04.08v-.04zm-1.051.04v.06zm-16.035-6.251.182.02v-.02zm65.816 14.085c.121-1.462.202-2.885.263-4.287a24 24 0 0 1-3.418 1.242c-.444.12-.829.2-1.213.28-.303.061-.586.121-.889.201a9 9 0 0 1-1.8.34c-2.709.241-4.287.361-4.812.381-2.123.04-4.287.06-6.511.06.263.842.384 1.743.364 2.665v4.207c2.79.04 5.621-.12 8.452-.44 2.244-.241 4.408-.742 6.632-1.523.97-.341 1.779-.781 2.406-1.342.182-.161.425-.602.505-1.784zm-22.424 7.974c0-.501 0-.982.021-1.442.04-.922.06-2.024.081-3.306a28 28 0 0 1-6.936 2.083c-3.093.501-6.733.802-10.817.882-6.652.14-13.204-.1-19.451-.701-2.932-.281-5.803-.641-8.513-1.102-2.325-.381-4.65-.822-6.895-1.323-2.345-.52-4.327-1.162-6.106-2.043v.14c.101 2.144.141 3.246.141 3.306v.461c.061.601.102 1.603.385 1.863 1.577 1.483 3.983 2.244 5.904 2.745a75 75 0 0 0 8.007 1.603c3.68.521 6.106.861 7.259.982a169 169 0 0 0 19.835 1.061c3.255 0 6.106-.26 9.119-.541 2.972-.26 5.864-1.041 7.805-2.063.141-.701.141-1.663.141-2.605z"/><path stroke="#fff" stroke-linecap="round" stroke-linejoin="round" d="m131.447 143.495-.041-.04m-.06-.101s0 .041.02.061m-.02-.181v.06"/><path fill="#323E48" d="M184.544 138.706c-2.083-3.045-5.459-5.189-7.299-6.211a55.4 55.4 0 0 0-10.312-4.347 86.1 86.1 0 0 0-27.297-3.887c-4.61.08-9.078.581-13.284 1.502-5.459 1.202-9.341 2.905-11.849 5.19-1.294 1.182-2.123 2.684-2.487 4.467a127 127 0 0 0-.647 3.467c-.647.501-2.568 1.082-4.408 1.623-3.7 1.101-8.29 2.484-10.291 5.129-.991 1.322-.93 4.287-.749 11.44 0 .421.041 1.563.688 2.745.162.32.364.601.607.881.485.601 1.213 1.182 2.224 1.824 3.215 2.023 7.097 2.925 10.494 3.546a181.6 181.6 0 0 0 26.791 2.845q1.516.06 3.093.06c2.73 0 5.601-.12 8.553-.341 2.164-.16 4.509-.5 6.956-1.021 2.628-.541 6.005-1.723 7.259-4.288.364-.741.485-1.643.505-2.504a69.5 69.5 0 0 0 10.393-.702c3.478-.501 6.591-1.122 9.483-3.386 1.456-1.162 2.467-2.384 2.689-4.548.101-1.042.182-2.043.223-3.005.121-1.944.161-3.887.161-5.79a8.14 8.14 0 0 0-1.456-4.669zm-1.557 6.612s0-.06-.04-.1v.08zm-.081-.12s-.04 0-.04-.02c0 0 .04 0 .04.02m-22.545 7.553v-.04zm-.04-.06h-.02zm-58.799-6.171c.445-.32.991-.641 1.658-.921 2.427-1.062 5.076-1.784 8.614-2.365 2.507-.4 5.803-.661 9.827-.761 1.84-.12 3.417-.16 4.711-.16.829 0 1.557.02 2.163.06 1.254.08 2.528.16 3.802.2 1.031.04 3.053.261 6.025.661a70 70 0 0 1 11.04 2.385c3.134.961 5.54 1.763 8.047 3.446.486.32.809.801.829 1.022 0 .06-.101.14-.161.18-.668.481-1.315.841-1.921 1.062-2.427.841-5.116 1.362-8.432 1.603-2.851.2-4.853.32-5.944.34-2.649.06-5.46.06-8.371 0a138 138 0 0 1-21.292-2.104 59 59 0 0 1-8.269-2.103c-1.476-.501-2.831-1.303-2.993-1.743 0-.141.303-.521.647-.762h.02zm-1.94 3.927s.02 0 .04-.02c0 0-.02 0-.04.02m18.278-11.6v.02zm-.02.04h-.041s.02 0 .041-.02zm44.058 9.396v.04zm.02-.04h.041c-.02 0-.041 0-.061.02zm-11.161 15.468c-3.013.26-5.884.521-9.119.541-6.571.04-13.244-.321-19.835-1.062-1.153-.12-3.579-.461-7.259-.982-2.77-.401-5.48-.922-8.007-1.603-1.921-.501-4.327-1.262-5.904-2.745-.283-.26-.324-1.262-.344-1.863v-.461s-.081-1.182-.162-3.306v-.14c1.78.882 3.761 1.523 6.107 2.044a129 129 0 0 0 15.407 2.424c6.248.601 12.799.841 19.451.701 4.084-.08 7.724-.38 10.818-.881a26.4 26.4 0 0 0 6.935-2.084c0 1.282-.041 2.384-.081 3.306-.02.461-.02.942-.02 1.442 0 .942 0 1.904-.142 2.605-1.941 1.042-4.852 1.803-7.804 2.064zm-20.118-33.921c2.426-.4 4.953-.641 7.562-.681 2.79-.06 5.661-.12 8.472.08a87 87 0 0 1 16.155 2.645c3.518.922 7.016 2.244 10.433 3.907a28.8 28.8 0 0 1 6.188 4.047c.889.782 1.536 1.763 1.496 2.304 0 .08 0 .241-.344.461-.768.481-1.355.782-1.9.962a39 39 0 0 1-11.627 1.943q-2.365.03-6.975 0c-2.245-1.522-4.833-2.785-7.704-3.706-9.645-3.126-20.2-4.468-31.361-3.947h-.02s-.243-.02-.263 0c-1.294-.681-2.244-1.383-2.831-2.084-.202-.24-.444-.621-.424-.922.04-.34.384-.681.687-.901.89-.681 1.335-.862 1.517-.922l.303-.12a13.6 13.6 0 0 1 2.993-1.362c2.567-.802 5.115-1.363 7.643-1.643zm-14.821 9.297s-.041 0-.041-.02c0 0 .02 0 .041.02m-.081-.08v-.06zm-16.075 11.4h.06-.08zm78.553 3.767c-2.224.781-4.387 1.282-6.632 1.522-2.83.321-5.661.481-8.452.441q-.03-2.855 0-4.207c0-.922-.121-1.803-.363-2.665 2.203 0 4.387-.02 6.51-.06.526 0 2.083-.14 4.812-.381.668-.06 1.274-.16 1.8-.34.303-.08.586-.141.89-.201.364-.08.768-.16 1.213-.28a25 25 0 0 0 3.417-1.242 107 107 0 0 1-.263 4.287c-.081 1.182-.323 1.603-.505 1.783-.627.541-1.436 1.002-2.406 1.343z"/><path stroke="#79AA99" stroke-linecap="round" stroke-linejoin="round" d="M117.859 138.868v-.021"/><path fill="#79AA99" d="M117.839 138.887s-.02 0-.04.02h.04zm-2.123.06v.06s-.02-.04 0-.06"/><path stroke="#79AA99" stroke-linecap="round" stroke-linejoin="round" d="M115.818 139.087s-.041 0-.041-.02"/><path fill="#79AA99" d="M132.398 143.194v.04c0-.02 0-.04.041-.08v.02z"/><path stroke="#79AA99" stroke-linecap="round" stroke-linejoin="round" d="M132.418 143.515s.02.04.04.04m-.061-.08s0-.04-.02-.06m-.02-.121v.061"/><path fill="#79AA99" d="M182.986 145.318v-.08c0 .02.041.06.041.1z"/><path stroke="#79AA99" stroke-linecap="round" stroke-linejoin="round" d="M182.906 145.198s-.041 0-.041-.02m-20.967 3.105v.039"/><path fill="#79AA99" d="M161.918 148.243s.04-.02.061-.02h-.041z"/><path stroke="#79AA99" stroke-linecap="round" stroke-linejoin="round" d="M99.582 150.447s.02 0 .04-.02m60.7 2.264h-.021"/><path fill="#323E48" d="M96.932 28.15a10 10 0 0 0 1.335-1.683l.303-13.484.405.08c.262-1.162.262-2.284 0-3.346-1.355-5.049-8.31-6.311-10.94-6.772C72.366.14 49.256 0 48.285 0c-1.051-.06-25.982-.06-39.59 3.546C3.437 4.97.626 7.052.08 9.977c-.202 1.062-.06 2.164.385 3.286l.202-.08c.08 4.568.141 9.136.222 13.705.405.28 1.092.74 1.962 1.242.748.42 1.496.781 2.224 1.122l-.89 123.399 1.537.461a151 151 0 0 0 43.108 6.531h.87c14.153 0 28.206-1.983 41.813-5.91l1.537-.441.587-122.838c1.152-.561 2.305-1.303 3.316-2.344zM48.85 155.416a147 147 0 0 1-40.338-5.891l.121-17.571a202.5 202.5 0 0 0 43.412 4.308 201 201 0 0 0 36.8-3.707l-.081 17.571c-13.002 3.587-26.387 5.33-39.914 5.29M89.27 43.677a325 325 0 0 1-38.802 2.385A322.5 322.5 0 0 1 9.26 43.437l.101-12.683c1.213.32 2.326.521 3.256.662 11.464 1.743 37.689 2.204 37.71 2.204 0 0 16.741.3 36.86-1.503.525-.04 1.294-.12 2.143-.28l-.06 11.82zM48.263 4.267c.242 0 23.717.12 39.003 2.865 5.702 1.022 7.26 2.565 7.563 3.667.04.18.08.38.06.601-8.674 3.787-44.624 4.208-44.624 4.208s-36.901.42-46.08-3.807l.302-.12c-.141-.381-.202-.702-.141-.962.141-.822 1.678-2.044 5.48-3.066C22.887 4.187 48.02 4.227 48.283 4.247z"/></g><defs><clipPath id="a"><path fill="#fff" d="M0 0h186v169H0z"/></clipPath></defs></svg>
